X: 28084
T: Mr Turner's Academy Cotillion
R: polka
M: 2/4
K: Gmajor
|:g2g2|d3 B|cA FD|G/F/G/A/ BG|
g2g2|d3 B|cA FD|1 G>A Bd:|2 G2 GB||
|:c>d cA|d>e dB|cA FD|G/F/G/A/ BG|
c>d cA|d>e dB|cA FD|1 G2 GB:|2 G2 G2||
|:DG DG|G/A/B/A/ BG|DG DG|G/A/B/A/ BG:|
c>d cA|d>e dB|cA FD|G/F/G/A/ BG|
c>d cA|d>e dB|cA FD|1 G2 GB:|2 G>A Bd||

